!!!!SEGMENT: pl-kk--kk-i-24--004_anonim--missa-insignis-mater-agnus-dei.krn
!!!cenid: 17xx:2214
!!!COM: Anonim
!!!COM-rismid: pe30004985
!!!CDT:
!!!CNT:
!!!OPR: Missa Insignis Mater
!!!OTL: Agnus Dei
!!!OMV: 004
!!!PDT:
!!!AGN: Sacred; Mass
!!!SMS-siglum: PL-Kk
!!!SMS-shelfmark: Kk.I.24
!!!SMS-shelfwork: 001-004 M
!!!SMS-variant:
!!!SMS-altvar:
!!!NIFC-rismid: 1001156018
!!!URL-scan: http://repozytorium.nifc.pl/skany/pl-kk-nut--i-24
!!!ONB-nifc: UWAGA: części Mszy: 1. Kyrie, 2. Et in terra, 3. Sanctus, 4. Agnus Dei.
**kern	**text	**kern	**fba	**text	**kern	**text	**kern	**text	**kern	**text
*part5	*part5	*part4	*part4	*part4	*part3	*part3	*part2	*part2	*part1	*part1
*staff5	*staff5	*staff4	*	*staff4	*staff3	*staff3	*staff2	*staff2	*staff1	*staff1
*Iempty	*	*Iempty	*	*	*Itenor	*	*Ialto	*	*Ivox	*
*I"Baſso Ripieno	*	*I"Baſso.	*	*	*I"Tenore	*	*I"Alto.	*	*I"Canto	*
*I'B. Rip	*	*I'B	*	*	*I'T	*	*I'A	*	*I'C	*
*clefF4	*	*clefF4	*	*	*clefC4	*	*clefC3	*	*clefC1	*
*ok[b-b-]	*	*ok[b-b-]	*	*	*	*	*	*	*	*
*k[b-]	*	*k[b-]	*	*	*k[b-]	*	*k[b-]	*	*k[b-]	*
*g:	*	*g:	*	*	*g:	*	*g:	*	*g:	*
*M4/4	*	*M4/4	*	*	*M4/4	*	*M4/4	*	*M4/4	*
*met(c)	*	*met(c)	*	*	*met(c)	*	*met(c)	*	*met(c)	*
=1	=1	=1	=1	=1	=1	=1	=1	=1	=1	=1
!	!	!LO:TX:a:t=T.	!	!	!	!	!	!	!LO:TX:a:t=T.	!
4.G\	A-	4.G\	.	A-	4.G/	A-	4g\	A-	4.b-\	A-
.	.	.	.	.	.	.	4g\	-gn(us)	.	.
8G\	-gn(us)	8G\	.	-gnus	8B-\	-gnus	.	.	8b-\	-gnus
*	*	*	*	*	*2\right	*	*	*	*	*
(4E-X\	De-	(4E-X\	.	De-	2c\	De-	(4g\	De-	(4b-\	De-
4F\)	.	4F\)	.	.	.	.	4fn\)	.	4a\)	.
=2	=2	=2	=2	=2	=2	=2	=2	=2	=2	=2
!!LO:TX:t=P:problem:oddech jako rozdzielacz słów:global
4BB-,</	-i	4BB-,</	.	-i	4d,<\	-i	4f,<\	-i	4b-,<\	-i
4D/	qui	4D/	.	qui	4d\	qui	4f\	qui	4b-\	qui
*2\right	*	*2\right	*	*	*	*	*2\right	*	*2\right	*
2F\	tol-	2F\	.	tol-	2A\	tol-	2f\	tol-	2cc\	tol-
=3	=3	=3	=3	=3	=3	=3	=3	=3	=3	=3
4G,<\	-lis	4G,<\	.	-lis	4B-,<\	-lis	4d,<\	-lis	4b-,<\	-lis
!	!	!	!	!	!	!	!LO:SIC:v:t=custos e-	!	!	!
4D\	pec-	4D\	.	pec-	4F/	pec-	4d\	pec-	8b-\L	pec-
.	.	.	.	.	.	.	.	.	16cc\L	.
.	.	.	.	.	.	.	.	.	16dd\JJ	.
!	!	!	!	!	!	!	!LO:LB:g=original	!	!	!
=-	=-	=-	=-	=-	=-	=-	=-	=-	=-	=-
4C/	-ca-	4C/	.	-ca-	4G/	-ca-	4e-X\	-ca-	4ee-X\	-ca-
4E-X\	-ta	4E-X\	.	-ta	4G/	-ta	4e-\	-ta	4b-\	-ta
=4	=4	=4	=4	=4	=4	=4	=4	=4	=4	=4
(<4C/	mun-	(<4C/	.	mun-	(4G/	mun-	(4e\	mun-	2a\	mun-
4D\)	.	4D\)	.	.	4F#X/)	.	4d\)	.	.	.
4GG,</	-di	4GG,</	.	-di	4G,</	-di	4d,<\	-di	4g,</	-di
8G\	mi-	8G\	.	mi-	8B-\	mi-	8g\	mi-	8dd\	mi-
8G\	-ſe-	8G\	.	-ſe-	8B-\	-ſe-	8g\	-ſe-	8dd\	-ſe-
=5	=5	=5	=5	=5	=5	=5	=5	=5	=5	=5
4.E-X\	-re-	4.E-X\	.	-re-	4.B-\	-re-	4.g\	-re-	4.ee-X\	-re-
8E-,<\	-re	8E-,<\	.	-re	8B-,<\	-re	8g,<\	-re	8ee-,<\	-re
*	*ij	*	*	*ij	*	*ij	*	*ij	*	*
4E-\	mi-	4E-\	.	mi-	4B-\	mi-	4g\	mi-	4ee-\	mi-
4E-\	-ſe-	4E-\	.	-ſe-	4B-\	-ſe-	4g\	-ſe-	4ee-\	-ſe-
=6	=6	=6	=6	=6	=6	=6	=6	=6	=6	=6
4BB-/	-re-	4BB-/	.	-re-	4B-\	-re-	4f\	-re-	4dd\	-re-
4BB-,</	-re	4BB-,</	.	-re	4d,<\	-re	4f,<\	-re	4dd\	-re
*	*Xij	*	*	*Xij	*	*Xij	*	*Xij	*	*
(4GG/	no-	(4GG/	.	no-	(4d\	no-	2en\	no-	2r	.
4AA/)	.	4AA/)	.	.	4c#X\)	.	.	.	.	.
=7	=7	=7	=7	=7	=7	=7	=7	=7	=7	=7
4D,</	-bis	4D,</	.	-bis	4d,<\	-bis	4d,<\	-bis	4r	.
8BB-/	mi-	8BB-/	.	mi-	8d\	mi-	8f\	mi-	8ff\	mi-
8D/	-ſe-	8D/	.	-ſe-	8d\	-ſe-	8f\	-ſe-	8ff\	-ſe-
!	!	!	!	!	!LO:LB:g=original	!	!	!	!	!
=-	=-	=-	=-	=-	=-	=-	=-	=-	=-	=-
(4E-X\	-re-	(4E-X\	.	-re-	8c\	-re-	4e-X\	-re-	8gg\	-re-
.	.	.	.	.	8c,<\	-re	.	.	8gg\	-re
4F\)	.	4F\)	.	.	4c\	no-	4c\	.	4ff\	no-
!	!	!	!	!	!	!	!	!	!LO:LB:g=original	!
=8	=8	=8	=8	=8	=8	=8	=8	=8	=8	=8
4BB-,</	-re	4BB-,</	.	-re	4B-,<\	-bis	8d,<\	-re	4ff,<\	-bis
*	*	*	*	*	*	*	*	*ij	*	*
.	.	.	.	.	.	.	4d\	mi-	.	.
*	*ij	*	*	*ij	*	*	*	*	*	*
8GG/	mi-	8GG/	.	mi-	8d\	mi-	.	.	8b-\	mi-
8GG/	-ſe-	8GG/	.	-ſe-	8G/	-ſe-	8d\	-ſe-	8b-\	-ſe-
4C/	-re-	4C/	.	-re-	4G/	-re-	(8e-X\L	-re-	4cc\	-re-
.	.	.	.	.	.	.	8c\J)	.	.	.
4GG/	-re	4GG/	.	-re	4G/	-re	4d\	-re	4b-\	-re
*	*Xij	*	*	*Xij	*	*	*	*Xij	*	*
=9	=9	=9	=9	=9	=9	=9	=9	=9	=9	=9
2D\	no-	2D\	.	no-	4G/	no-	2d\	no-	2a\	no-
.	.	.	.	.	4F#X/	.	.	.	.	.
2GG;/	-bis.	2GG/	.	-bis.	2G/	-bis.	2d\	-bis.	2bn\	-bis.
!LO:LB:g=original	!	!LO:LB:g=original	!	!	!	!	!	!	!	!
=10	=10	=10||	=10	=10||	=10	=10	=10	=10	=10	=10
*M3/2	*	*M3/2	*	*	*M3/2	*	*M3/2	*	*M3/2	*
2r	.	2r	.	.	2r	.	00.r	.	(4g\	A-
.	.	.	.	.	.	.	.	.	4a\	.
2.G\	A-	2G\	.	A-	(4G/	A-	.	.	4b-\	.
.	.	.	.	.	4A/)	.	.	.	4cc\)	.
.	-gn(us)	(4F\	.	-gnus	(4B-/	-gnus	.	.	4dd\	.
(8F\L	.	4E\)	.	.	4c/)	.	.	.	4een\	.
8E\J)	.	.	.	.	.	.	.	.	.	.
=11	=11	=11	=11	=11	=11	=11	=11	=11	=11	=11
*	*	*	*	*	*	*ij	*	*	*	*
(4D\	De-	4D\	.	De-	1d	A-	.	.	1ff	.
4E\)	.	4E\	.	.	.	.	.	.	.	.
(4F\	-i	4F\	.	-i	.	.	.	.	.	.
4G,<\)	.	4G,<\	.	.	.	.	.	.	.	.
2A\	qui	2A\	.	qui	2c\	-gnus	.	.	2een\	-gnus
*	*	*	*	*	*	*Xij	*	*	*	*
=12	=12	=12	=12	=12	=12	=12	=12	=12	=12	=12
4B-\	tol-	(4B-\	.	tol-	4B-\	De-	.	.	2dd\	De-
4A\	.	4A\)	.	.	4c\	.	.	.	.	.
4G,<\	-lis	4G,<\	.	-lis	2d\	-i	.	.	2dd,<\	-i
4F\	pec-	4F\	.	pec-	.	.	.	.	.	.
2En\	-ca-	2En\	.	-ca-	2c#X\	qui	.	.	2een\	Qui
=13	=13	=13	=13	=13	=13	=13	=13	=13	=13	=13
2D,<\	-ta	2D,<\	.	-ta	(1d	tol-	.	.	2ff\	tol-
(2G\	mun-	(2G\	.	mun-	.	.	.	.	1een	.
2A\)	.	2A\)	.	.	2c#X\)	.	.	.	.	.
=14	=14	=14	=14	=14	=14	=14	=14	=14	=14	=14
1.D,<	-di,	1.D,<	.	-di,	1.d	-lis,	1.r	.	1.dd,<	-lis
=15	=15	=15	=15	=15	=15	=15	=15	=15	=15	=15
2.D/	mi-	2.D/	.	qui	2.d\	Qui	2.f\	Qui	2.ff\	qui
4AA/	-ſe-	4AA/	.	tol-	4c\	tol-	4a\	tol-	4ee-X\	tol-
4BB-/	-re-	4BB-/	.	-lis	4B-\	-lis	4f\	-lis	4dd\	-lis
4BB-/	-re	4BB-/	.	pec-	4B-\	pec-	4f\	pec-	4dd\	pec-
=16	=16	=16	=16	=16	=16	=16	=16	=16	=16	=16
1F	no-	1F	.	-ca-	1A	-ca-	1f	-ca-	1cc	-ca-
2BB-,</	-bis	2BB-,</	.	-ta	2B-\	-ta	2f,<\	-ta	2b-\	-ta-
!	!	!	!	!	!LO:LB:g=original	!	!	!	!	!
=17	=17	=17	=17	=17	=17	=17	=17	=17	=17	=17
*	*ij	*	*	*	*	*	*	*ij	*	*
2.F\	mi-	2.F\	.	pec-	4A/	pec-	2f\	pe-	(4cc\	.
.	.	.	.	.	(4G/	-ca-	.	.	4b-\)	-e-
.	.	.	.	.	4A/	.	2f\	-ca-	(4cc\	.
8E-X\L	-ſe-	(8E-X\L	.	-ca-	4B-/)	.	.	.	4dd\)	-ca-
8D\J	-re-	8D\J)	.	.	.	.	.	.	.	.
!	!	!	!	!	!	!	!	!	!LO:SIC:v:s=2ee-\	!
2C/	-re	2C/	.	.	2c\	.	2e-X\	.	2ee\	.
!	!	!	!	!	!	!	!	!	!LO:LB:g=original	!
=18	=18	=18	=18	=18	=18	=18	=18	=18	=18	=18
2D\	no-	2D\	.	-ta	2B-,<\	-ta	2f\	-ta	2dd\	-ta
*	*	*	*	*	*	*	*	*Xij	*	*
2E-X\	.	(2E-X\	.	mun-	2B-\	mun-	(2g\	mun-	1cc	mun-
2F\	.	2F\)	.	.	2A\	.	2f\)	.	.	.
=19	=19	=19	=19	=19	=19	=19	=19	=19	=19	=19
1.BB-	-bis	1.BB-	.	-di	1.B-	-di	1.f	-di,	1.b-,<	di
*	*Xij	*	*	*	*	*	*	*	*	*
!	!	!	!	!	!	!	!LO:LB:g=original	!	!	!
=20	=20	=20	=20	=20	=20	=20	=20	=20	=20	=20
2.F\	mi-	2.F\	.	mi-	2.A\	mi-	2.f\	mi-	2.cc\	mi-
4F\	-ſe-	4F\	.	-ſe-	4A\	-ſe-	4f\	-ſe-	4cc\	-ſe-
4BB-/	-re-	4BB-/	.	-re-	4B-\	-re-	4f\	-re-	4dd\	-re-
!LO:SIC:v:t=custos E-	!	!LO:SIC:v:t=custos E-	!	!	!	!	!	!	!	!
4BB-/	-re	4BB-/	.	-re	4B-\	-re	4f\	-re	4dd\	-re
!LO:LB:g=original	!	!LO:LB:g=original	!	!	!	!	!	!	!	!
=21	=21	=21	=21	=21	=21	=21	=21	=21	=21	=21
*	*ij	*	*	*	*	*ij	*	*ij	*	*ij
4E-X\	mi-	4E-X\	.	mi-	4G/	mi-	4e-X\	mi-	4b-\	mi-
4E-\	-se-	4E-\	.	-se-	4G/	-ſe-	4e-\	-ſe-	4b-\	-ſe-
!	!	!	!	!	!	!	!	!	!LO:SIC:v:s=4b-\	!
4C/	-re-	4C/	.	-re-	4d\	-re-	4e-\	-re-	4cc\	-re-
4GG/	-re	4GG/	.	-re	4d,<\	-re	4d\	-re	4b-,<\	-re
*	*Xij	*	*	*	*	*Xij	*	*Xij	*	*Xij
2D/	no-	2D/	.	no-	2d\	no-	2d\	no-	2a\	no-
=22	=22	=22	=22	=22	=22	=22	=22	=22	=22	=22
1.GG	-bis	1.GG	.	-bis	1.d,<	-bis	1.d,<	-bis	1.bn,<	-bis.
=23	=23	=23	=23	=23	=23	=23	=23	=23	=23	=23
1.r	.	1.r	.	.	4G/	mi-	4g\	mi-	0.r	.
.	.	.	.	.	4G/	-ſe-	4g\	-ſe-	.	.
.	.	.	.	.	2B-\	-re-	2d\	-re-	.	.
.	.	.	.	.	2c\	-re	2en\	-re	.	.
=24	=24	=24	=24	=24	=24	=24	=24	=24	=24	=24
4D\	mi-	4D\	.	mi-	2d\	no-	2f\	no-	.	.
4D\	-ſe-	4D\	.	-ſe-	.	.	.	.	.	.
2En\	-re-	2En\	.	-re-	1c	.	1en	.	.	.
2F#X\	-re	2F#X\	.	-re	.	.	.	.	.	.
=25	=25	=25	=25	=25	=25	=25	=25	=25	=25	=25
2G\	no-	2G\	.	no-	1.B-	-bis.	2d,<\	-bis	4.g\	mi-
.	.	.	.	.	.	.	.	.	8a\	-ſe-
2GG,</	-bis	2GG,</	.	-bis	.	.	(4g\	mi-	2b-\	-re-
.	.	.	.	.	.	.	4f\)	.	.	.
4AA/	mi-	4AA/	.	mi-	.	.	(4f\	-ſe-	2cc\	-re
4AA/	-ſe-	4AA/	.	-ſe-	.	.	4e\)	.	.	.
=26	=26	=26	=26	=26	=26	=26	=26	=26	=26	=26
4BB-/	-re-	(4BB-/	.	-re-	00.r	.	(4d\	-re-	1dd	no-
(4C/	.	4C/	.	.	.	.	4e\	.	.	.
4D/)	.	4D/	.	.	.	.	4f\	.	.	.
4E/	.	4E/)	.	.	.	.	4g\)	.	.	.
2F\	.	2F\	.	-re	.	.	2a,<\	-re	2cc,<\	-bis,
=27	=27	=27	=27	=27	=27	=27	=27	=27	=27	=27
*	*	*	*	*ij	*	*	*	*ij	*	*
2.G\	.	2.G\	.	mi-	.	.	2.g\	mi-	2.b-\	mi-
4F\	.	4F\	.	-ſe-	.	.	4g\	-ſe-	4b-\	-ſe-
2E-X\	.	2E-X\	.	-re-	.	.	2g\	-re-	2b-\	-re-
=28	=28	=28	=28	=28	=28	=28	=28	=28	=28	=28
2BB-,</	-re	2BB-,</	.	-re	.	.	2g,<\	-re	2b-\	-re
*	*	*	*	*Xij	*	*	*	*Xij	*	*
2C/	no-	(2C/	.	no-	.	.	2g\	no-	1a	no-
2D/	.	2D/)	.	.	.	.	2f#X\	.	.	.
=29	=29	=29	=29	=29	=29	=29	=29	=29	=29	=29
2GG;,</	-bis.	2GG;,</	.	-bis.	.	.	1.g,<	-bis.	2g;,<\	-bis
2G\	A-	2G\	.	A-	.	.	.	.	2b-X\	A-
!	!	!	!	!	!	!	!	!	!LO:SIC:v:t=custos dd	!
2A\	-gn(us)	2A\	.	-gn(us)	.	.	.	.	2cc\	-gnus
!	!	!	!	!	!	!	!	!	!LO:LB:g=original	!
=30	=30	=30	=30	=30	=30	=30	=30	=30	=30	=30
1.B-	De-	1.B-	.	De-	2r,<	.	2r	.	1.dd	De-
.	.	.	.	.	2d\	A-	2fn\	A-	.	.
.	.	.	.	.	2en\	-gnus	2g\	-gnus	.	.
=31	=31	=31	=31	=31	=31	=31	=31	=31	=31	=31
2F,<\	-i	2F,<\	.	-i	1f	De-	1a	De-	1cc,<	-i,
(2AA/	Qui	(2AA/	.	Qui	.	.	.	.	.	.
2C/)	.	2C/)	.	.	2e\	-i	2g,<\	-i	2cc\	qui
!LO:LB:g=original	!	!	!	!	!LO:LB:g=original	!	!	!	!	!
=32	=32	=32	=32	=32	=32	=32	=32	=32	=32	=32
(4D/	tol-	(4D/	.	tol-	2d\	qui	2f,<\	qui	(4a\	tol-
4C/)	.	4C/)	.	.	.	.	.	.	8b-\L	.
.	.	.	.	.	.	.	.	.	8cc\J)	.
(4BB-/	-lis	(4BB-/	.	-lis	2d\	tol-	2F/	tol-	4dd,<\	lis
4AA/)	.	4AA/)	.	pec-	.	.	.	.	4cc\	pec-
2GG/	pec-	2GG/	.	-ca-	4en\	-lis	4G/	-lis	4b-\	-ca-
.	.	.	.	.	4e\	pec-	4G/	pec-	4cc\	-ta
!	!	!LO:LB:g=original	!	!	!	!	!	!	!	!
=33	=33	=33	=33	=33	=33	=33	=33	=33	=33	=33
2F\	-ca-	2FF/	.	-ta	2f\	-ca-	2A/	-ca-	(1dd	mun-
2G\	-ta	2GG,</	.	mun-	2en\	-ta	2B-,</	-ta	.	.
2A\	mun	2AA/	.	.	2e\	mun-	2A/	mun-	2cc#X\)	.
=34	=34	=34	=34	=34	=34	=34	=34	=34	=34	=34
1.D	-di.	1.D	.	-di.	1.d,<	-di.	1.A	-di	1.dd,<	-di
!	!	!	!	!	!	!	!LO:LB:g=original	!	!	!
=35	=35	=35	=35	=35	=35	=35	=35	=35	=35	=35
00.r	.	00.r	.	.	2.d\	Do-	2.B-/	do-	2.ff\	Do-
.	.	.	.	.	4c\	-na	4c\	-na	4ee-X\	-na
.	.	.	.	.	4B-\	no-	4d\	no-	4dd\	no-
.	.	.	.	.	4B-\	-bis	4d\	-bis	4dd,<\	-bis
=36	=36	=36	=36	=36	=36	=36	=36	=36	=36	=36
.	.	.	.	.	1A	pa-	1f	pa-	1cc	pa-
.	.	.	.	.	2B-,<\	-cem	2d,<\	-cem	2dd,<\	-cem
=37	=37	=37	=37	=37	=37	=37	=37	=37	=37	=37
.	.	.	.	.	2.A\	do-	2.f\	do-	(4cc\	Do-
.	.	.	.	.	.	.	.	.	4b-\)	.
.	.	.	.	.	.	.	.	.	(4cc\	-na
.	.	.	.	.	4B-\	-na	4e-X\	-na	4dd,<\)	.
.	.	.	.	.	2c\	no-	2c\	no-	2ee-X\	no-
=38	=38	=38	=38	=38	=38	=38	=38	=38	=38	=38
.	.	.	.	.	2B-\	-bis	2d\	-bis	2dd,<\	-bis
.	.	.	.	.	2B-\	pa-	1f	pa-	1cc	pa-
.	.	.	.	.	2A,<\	-cem	.	.	.	.
=39	=39	=39	=39	=39	=39	=39	=39	=39	=39	=39
(4B-\	Do-	(4B-\	.	Do-	(4d\	do-	2B-,</	-cem	1.dd,<	-cem
4A\)	.	4A\)	.	.	4c\)	.	.	.	.	.
(4G\	-na	(4G\	.	-na	(4B-\	-na	(4d\	do-	.	.
4F,<\)	.	4F\)	.	.	4A\)	.	8e-XL\	.	.	.
.	.	.	.	.	.	.	8f\J	.	.	.
4E-X\	no-	4E-X|\	.	no-	4G/	no-	4g\)	.	.	.
4D\	-bis	4D|\	.	-bis	8A/L	.	4f\	.	.	.
.	.	.	.	.	8B-/J	.	.	.	.	.
=40	=40	=40	=40	=40	=40	=40	=40	=40	=40	=40
4C/	pa-	4C/	.	pa-	4c\	.	4e-X\	.	2.cc\	Do-
8D/L	.	8D/L	.	.	4B-\	.	4e-,<\	-na	.	.
!	!	!LO:SIC:v:s=8E-/J	!	!	!	!	!	!	!	!
8E-/J	.	8E/J	.	.	.	.	.	.	.	.
4F\	.	4F\	.	.	4A/	.	1f	no-	.	.
!	!	!LO:SIC:v:s=4E-\	!	!	!	!	!	!	!	!
4E-\	.	4E\	.	.	8G/L	.	.	.	4cc\	-na
.	.	.	.	.	8A/J	.	.	.	.	.
2D\	-cem	4D/	.	.	4B-\	-bis	.	.	2dd\	no-
.	.	4D,</	.	-cem	4A\	.	.	.	.	.
!	!	!	!	!	!	!	!	!	!LO:LB:g=original	!
=41	=41	=41	=41	=41	=41	=41	=41	=41	=41	=41
4E-X\	do-	4E-X\	.	do-	1G	pa-	2e-X,<\	-bis	2b-,<\	-bis
4E-\	-na	4E-\	.	-na	.	.	.	.	.	.
4C/	no-	4C/	.	no-	.	.	(2e-\	pa-	1a	pa-
4C/	-bis	4C/	.	-bis	.	.	.	.	.	.
!	!	!	!	!	!LO:SIC:v:t=custos G	!	!	!	!	!
2D\	pa-	2D\	.	pa-	2F#X/	.	2d\)	.	.	.
!	!	!	!	!	!LO:LB:g=original	!	!	!	!	!
=42	=42	=42	=42	=42	=42-	=42	=42	=42	=42	=42
*M4/4	*	*M4/4	*	*	*M4/4	*	*M4/4	*	*M4/4	*
*met(c)	*	*met(c)	*	*	*met(c)	*	*met(c)	*	*met(c)	*
4GG,</	-cem.	4GG,</	.	-cem.	4G,</	-cem.	4d,<\	-cem	4g,</	-cem
8G\	Do-	8G\	-3	Do-	8B-\	Do-	8d\	Do-	8g/	Do-
8G\	-na	8G\	.	-na	8B-\	-na	8d\	-na	8g/	-na
2G\	no-	2G\	6 4	no-	2c\	no-	2e-X\	no-	2g/	no-
=43	=43	=43	=43	=43	=43	=43	=43	=43	=43	=43
2F\	-bis	2F;\	6	-bis	2d;\	-bis	2f\	-bis	2a/	-bis
4r	.	4r	.	.	4r	.	4r	.	4r	.
*	*ij	*	*	*ij	*	*ij	*	*ij	*	*ij
8E-X\	Do-	8E-X\	7 5	Do-	8B-/	Do-	8g\	Do-	8dd\	Do-
8E-\	-na	8E-\	.	-na	8B-/	-na	8g\	-na	8dd\	-na
=44	=44	=44	=44	=44	=44	=44	=44	=44	=44	=44
2En\	no-	2En\	76|	no-	2G/	no-	2g\	no-	4dd\	no-
.	.	.	.	.	.	.	.	.	4cc#X\	.
!	!	!	!	!	!	!	!LO:TX:a:t=P:problem:♮ above	!	!	!
2D\	-bis	2D;\	n	-bis	2A;</	-bis	2fn\	-bis	2dd,<\	-bis
*	*Xij	*	*	*Xij	*	*Xij	*	*Xij	*	*Xij
!LO:LB:g=original	!	!	!	!	!	!	!	!	!	!
=45	=45	=45	=45	=45	=45	=45	=45	=45	=45	=45
4r	.	4r	.	.	4r	.	4r	.	4r	.
8D\	[do-	8D\	#	do-	8F#X/	do-	8d\	do-	8a\	do-
8D\	-na]	8D\	.	-na	8F#/	-na	8d\	-na	8a\	-na
4G\	no-	4G\	-	no-	(8G/L	no-	4d\	no-	(8b-X\L	no-
.	.	.	.	.	8B-/J)	.	.	.	8dd\J)	.
4C/	-bis	4C/	.	-bis	(8A/L	-bis	4e-X\	-bis	(8cc\L	-bis
.	.	.	.	.	8G/J)	.	.	.	8b-\J)	.
=46	=46	=46	=46	=46	=46	=46	=46	=46	=46	=46
2D\	pa-	2D/	.	pa-	4G/	pa-	2d\	pa-	2a\	pa-
.	.	.	.	.	4F#X/	.	.	.	.	.
!LO:TX:a:t=O. ad M. D. Gm.	!	!	!	!	!	!	!	!	!	!
2GG/	-cem.	2GG;/	.	-cem.	2G;/	-cem.	2d\	-cem	2bn;\	-cem.
!	!	!	!	!	!LO:PB:g=original	!	!LO:PB:g=original	!	!LO:PB:g=original	!
==	==	==	==	==	==	==	==	==	==	==
*-	*-	*-	*-	*-	*-	*-	*-	*-	*-	*-
!!!system-decoration: [(s1,s2,s3,s4,s5)]
!!!RDF**kern: < = below
!!!RDF**kern: > = above
!!!RDF**kern: | = vertical stroke
!!!ENC: Marta Chmielewska
!!!END: 2021-07-21
!!!ENC:Berenika Jozajtis
!!!END:2021-07-02
